rospo-icon-theme-classic-common/64x64/apps/flightgear.svg

<svg height="64" width="64" xmlns="http://www.w3.org/2000/svg"><rect height="56" opacity=".2" rx="3" transform="matrix(0 -1 -1 0 0 0)" width="56" x="-61" y="-60"/><rect fill="#1e87e4" height="56" rx="3" transform="matrix(0 -1 -1 0 0 0)" width="56" x="-60" y="-60"/><path d="m7 4c-1.662 0-3 1.338-3 3v1c0-1.662 1.338-3 3-3h50c1.662 0 3 1.338 3 3v-1c0-1.662-1.338-3-3-3z" fill="#fff" opacity=".2"/><path d="m54.001 13.3q0 2.74-4.693 7.433l-7.558 7.559 4.503 23.496.032.189q0 .44-.283.726l-2.018 2.014q-.283.283-.723.283-.663 0-.914-.566l-8.63-18.111-7.717 7.715q2.142 7.499 2.142 7.939 0 .44-.283.722l-2.016 2.018q-.284.283-.725.283-.567 0-.882-.506l-4.881-8.819-8.819-4.881q-.536-.283-.536-.883 0-.44.283-.723l2.016-2.047q.284-.283.725-.283.441 0 7.937 2.142l7.716-7.717-18.11-8.63q-.567-.251-.567-.913 0-.441.283-.725l2.016-2.015q.284-.283.725-.283.126 0 .189.031l23.496 4.504 7.558-7.559q4.696-4.693 7.433-4.693 1.009 0 1.656.646.645.645.645 1.653z" fill="#2873b4"/><path d="m54.001 12.3q0 2.74-4.693 7.433l-7.558 7.559 4.503 23.496.032.189q0 .44-.283.726l-2.018 2.014q-.283.283-.723.283-.663 0-.914-.566l-8.63-18.111-7.717 7.715q2.142 7.499 2.142 7.939 0 .44-.283.722l-2.016 2.018q-.284.283-.725.283-.567 0-.882-.506l-4.881-8.819-8.819-4.881q-.536-.283-.536-.883 0-.44.283-.723l2.016-2.047q.284-.283.725-.283.441 0 7.937 2.142l7.716-7.717-18.11-8.63q-.567-.251-.567-.913 0-.441.283-.725l2.016-2.015q.284-.283.725-.283.126 0 .189.031l23.496 4.504 7.558-7.559q4.696-4.693 7.433-4.693 1.009 0 1.656.646.645.645.645 1.653z" fill="#fff"/></svg>

<svg xmlns="http://www.w3.org/2000/svg" width="64" height="64" version="1">
 <rect style="opacity:0.2" width="56" height="56" x="-61" y="-60" rx="3" ry="3" transform="matrix(0,-1,-1,0,0,0)"/>
 <rect style="fill:#1e87e4" width="56" height="56" x="-60" y="-60" rx="3" ry="3" transform="matrix(0,-1,-1,0,0,0)"/>
 <path style="opacity:0.2;fill:#ffffff" d="m7 4c-1.662 0-3 1.338-3 3v1c0-1.662 1.338-3 3-3h50c1.662 0 3 1.338 3 3v-1c0-1.662-1.338-3-3-3h-50z"/>
 <path style="fill:#2873b4" d="M 54.001,13.3 Q 54.001,16.04 49.308,20.733 L 41.75,28.292 46.253,51.788 46.285,51.977 Q 46.285,52.417 46.002,52.703 L 43.984,54.717 Q 43.701,55 43.261,55 42.598,55 42.347,54.434 L 33.717,36.323 26,44.038 Q 28.142,51.537 28.142,51.977 28.142,52.417 27.859,52.699 L 25.843,54.717 Q 25.559,55 25.118,55 24.551,55 24.236,54.494 L 19.355,45.675 10.536,40.794 Q 10,40.511 10,39.911 10,39.471 10.283,39.188 L 12.299,37.141 Q 12.583,36.858 13.024,36.858 13.465,36.858 20.961,39 L 28.677,31.283 10.567,22.653 Q 10,22.402 10,21.74 10,21.299 10.283,21.015 L 12.299,19 Q 12.583,18.717 13.024,18.717 13.15,18.717 13.213,18.748 L 36.709,23.252 44.267,15.693 Q 48.963,11 51.7,11 52.709,11 53.356,11.646 54.001,12.291 54.001,13.299 Z"/>
 <path style="fill:#ffffff" d="M 54.001,12.3 Q 54.001,15.04 49.308,19.733 L 41.75,27.292 46.253,50.788 46.285,50.977 Q 46.285,51.417 46.002,51.703 L 43.984,53.717 Q 43.701,54 43.261,54 42.598,54 42.347,53.434 L 33.717,35.323 26,43.038 Q 28.142,50.537 28.142,50.977 28.142,51.417 27.859,51.699 L 25.843,53.717 Q 25.559,54 25.118,54 24.551,54 24.236,53.494 L 19.355,44.675 10.536,39.794 Q 10,39.511 10,38.911 10,38.471 10.283,38.188 L 12.299,36.141 Q 12.583,35.858 13.024,35.858 13.465,35.858 20.961,38 L 28.677,30.283 10.567,21.653 Q 10,21.402 10,20.74 10,20.299 10.283,20.015 L 12.299,18 Q 12.583,17.717 13.024,17.717 13.15,17.717 13.213,17.748 L 36.709,22.252 44.267,14.693 Q 48.963,10 51.7,10 52.709,10 53.356,10.646 54.001,11.291 54.001,12.299 Z"/>
</svg>
